static/assets/images/networks/aptos.svg

<svg width="256" height="256" viewBox="0 0 256 256" fill="none" xmlns="http://www.w3.org/2000/svg">
<path d="M123.395 0H132.135C147.362 0.563333 161.813 3.575 175.49 9.035C197.583 17.8483 215.875 31.815 230.365 50.935C222.775 51.005 215.248 51.0283 207.785 51.005C203.92 50.995 201.465 50.58 198.95 47.765C195.913 44.365 192.898 40.9883 189.905 37.635C187.005 34.39 181.84 34.315 178.805 37.45C175.288 41.0867 171.82 44.6983 168.4 48.285C167.045 49.7 164.995 51 163.125 51C117.368 51.0033 71.5417 51.0017 25.645 50.995C32.245 42.065 39.8167 34.2633 48.36 27.59C70.28 10.4733 95.2917 1.27667 123.395 0Z" fill="white"/>
<path d="M230.365 50.935C238.168 61.585 244.32 73.1233 248.82 85.55C224.513 85.5667 200.257 85.595 176.05 85.635C173.02 85.6383 170.543 84.5683 168.62 82.425C165.483 78.925 162.517 75.53 159.72 72.24C156.425 68.375 151.385 68.74 148.195 72.44C145.595 75.46 143.158 78.2617 140.885 80.845C139.222 82.735 137.208 84.0917 134.845 84.915C133.605 85.345 131.028 85.56 127.115 85.56C87.2017 85.5633 47.2283 85.5633 7.195 85.56C11.6617 73.1267 17.8117 61.605 25.645 50.995C71.5417 51.0017 117.368 51.0033 163.125 51C164.995 51 167.045 49.7 168.4 48.285C171.82 44.6983 175.288 41.0867 178.805 37.45C181.84 34.315 187.005 34.39 189.905 37.635C192.898 40.9883 195.913 44.365 198.95 47.765C201.465 50.58 203.92 50.995 207.785 51.005C215.248 51.0283 222.775 51.005 230.365 50.935Z" fill="black"/>
<path d="M248.82 85.55C252.4 95.8333 254.657 106.482 255.59 117.495C223.587 117.505 191.598 117.503 159.625 117.49C157.45 117.49 154.82 115.92 153.25 114.12C150.22 110.653 147.34 107.347 144.61 104.2C142.705 102.005 140.295 101.165 137.38 101.53C135.857 101.72 134.282 102.678 132.655 104.405C129.768 107.468 126.702 110.707 123.455 114.12C121.445 116.23 119.885 117.51 117.125 117.505C78.2217 117.498 39.32 117.497 0.42 117.5C1.32 106.56 3.57833 95.9133 7.195 85.56C47.2283 85.5633 87.2017 85.5633 127.115 85.56C131.028 85.56 133.605 85.345 134.845 84.915C137.208 84.0917 139.222 82.735 140.885 80.845C143.158 78.2617 145.595 75.46 148.195 72.44C151.385 68.74 156.425 68.375 159.72 72.24C162.517 75.53 165.483 78.925 168.62 82.425C170.543 84.5683 173.02 85.6383 176.05 85.635C200.257 85.595 224.513 85.5667 248.82 85.55Z" fill="white"/>
<path d="M255.59 117.495L256 123.44V132.115C254.787 160.792 245.362 186.17 227.725 208.25C220.658 217.097 212.298 224.998 202.645 231.955C209.062 227.082 215.02 221.762 220.52 215.995C220.633 215.875 220.768 215.79 220.925 215.74C221.068 215.697 221.182 215.615 221.265 215.495C221.298 215.447 221.317 215.391 221.32 215.333C221.323 215.274 221.31 215.217 221.283 215.165C221.256 215.114 221.215 215.071 221.165 215.041C221.115 215.011 221.058 214.995 221 214.995C174.297 215.002 127.172 215.003 79.625 215C76.925 215 74.49 213.695 72.69 211.65C69.9233 208.51 67.16 205.34 64.4 202.14C62.405 199.825 60.05 198.525 56.96 199.155C55.35 199.485 53.9733 200.307 52.83 201.62C50.02 204.853 47.4567 207.772 45.14 210.375C42.44 213.412 39.0283 214.952 34.905 214.995C34.8709 214.995 34.8376 215.005 34.8093 215.024C34.781 215.043 34.7589 215.07 34.7457 215.101C34.7324 215.133 34.7286 215.168 34.7347 215.203C34.7408 215.237 34.7565 215.269 34.78 215.295C38.8233 219.538 43.0983 223.595 47.605 227.465C44.9617 225.438 42.4333 223.277 40.02 220.98C28.67 210.177 19.525 197.685 12.585 183.505C31.555 183.495 50.495 183.497 69.405 183.51C72.13 183.51 74.26 183.185 76.13 181.255C79.6033 177.662 83.2317 173.897 87.015 169.96C90.14 166.71 95.38 167.06 98.28 170.345C101.47 173.955 104.407 177.265 107.09 180.275C108.855 182.26 111.345 183.5 113.94 183.5C156.853 183.5 199.757 183.5 242.65 183.5C242.764 183.5 242.875 183.468 242.971 183.408C243.066 183.347 243.142 183.262 243.19 183.16C247.987 173.073 251.412 162.673 253.465 151.96C253.47 151.935 253.47 151.91 253.464 151.885C253.458 151.861 253.447 151.838 253.431 151.818C253.415 151.799 253.395 151.783 253.373 151.772C253.35 151.761 253.325 151.755 253.3 151.755C212.547 151.745 171.402 151.745 129.865 151.755C127.38 151.76 124.89 150.82 123.18 148.97C120.503 146.073 117.678 142.903 114.705 139.46C113.542 138.113 112.452 137.198 111.435 136.715C107.85 135 104.67 136.39 102.155 139.275C99.8683 141.898 97.7017 144.358 95.655 146.655C93.785 148.755 91.72 150.36 88.97 151.185C87.73 151.555 85.8183 151.74 83.235 151.74C56.2383 151.753 29.19 151.755 2.09 151.745C1.07667 145.332 0.38 138.895 0 132.435V123.5L0.42 117.5C39.32 117.497 78.2217 117.498 117.125 117.505C119.885 117.51 121.445 116.23 123.455 114.12C126.702 110.707 129.768 107.468 132.655 104.405C134.282 102.678 135.857 101.72 137.38 101.53C140.295 101.165 142.705 102.005 144.61 104.2C147.34 107.347 150.22 110.653 153.25 114.12C154.82 115.92 157.45 117.49 159.625 117.49C191.598 117.503 223.587 117.505 255.59 117.495Z" fill="black"/>
<path d="M12.585 183.505C7.525 173.458 4.02667 162.872 2.09 151.745C29.19 151.755 56.2383 151.753 83.235 151.74C85.8183 151.74 87.73 151.555 88.97 151.185C91.72 150.36 93.785 148.755 95.655 146.655C97.7017 144.358 99.8683 141.898 102.155 139.275C104.67 136.39 107.85 135 111.435 136.715C112.452 137.198 113.542 138.113 114.705 139.46C117.678 142.903 120.503 146.073 123.18 148.97C124.89 150.82 127.38 151.76 129.865 151.755C171.402 151.745 212.547 151.745 253.3 151.755C253.325 151.755 253.35 151.761 253.373 151.772C253.395 151.783 253.415 151.799 253.431 151.818C253.447 151.838 253.458 151.861 253.464 151.885C253.47 151.91 253.47 151.935 253.465 151.96C251.412 162.673 247.987 173.073 243.19 183.16C243.142 183.262 243.066 183.347 242.971 183.408C242.875 183.468 242.764 183.5 242.65 183.5C199.757 183.5 156.853 183.5 113.94 183.5C111.345 183.5 108.855 182.26 107.09 180.275C104.407 177.265 101.47 173.955 98.28 170.345C95.38 167.06 90.14 166.71 87.015 169.96C83.2317 173.897 79.6033 177.662 76.13 181.255C74.26 183.185 72.13 183.51 69.405 183.51C50.495 183.497 31.555 183.495 12.585 183.505Z" fill="white"/>
<path d="M202.645 231.955C183.915 245.398 162.988 253.205 139.865 255.375C137.475 255.598 135.083 255.807 132.69 256H124.69C95.8733 255.003 70.2517 245.603 47.825 227.8C47.7183 227.717 47.645 227.605 47.605 227.465C43.0983 223.595 38.8233 219.538 34.78 215.295C34.7565 215.269 34.7408 215.237 34.7347 215.203C34.7286 215.168 34.7324 215.133 34.7457 215.101C34.7589 215.07 34.781 215.043 34.8093 215.024C34.8376 215.005 34.8709 214.995 34.905 214.995C39.0283 214.952 42.44 213.412 45.14 210.375C47.4567 207.772 50.02 204.853 52.83 201.62C53.9733 200.307 55.35 199.485 56.96 199.155C60.05 198.525 62.405 199.825 64.4 202.14C67.16 205.34 69.9233 208.51 72.69 211.65C74.49 213.695 76.925 215 79.625 215C127.172 215.003 174.297 215.002 221 214.995C221.058 214.995 221.115 215.011 221.165 215.041C221.215 215.071 221.256 215.114 221.283 215.165C221.31 215.217 221.323 215.274 221.32 215.333C221.317 215.391 221.298 215.447 221.265 215.495C221.182 215.615 221.068 215.697 220.925 215.74C220.768 215.79 220.633 215.875 220.52 215.995C215.02 221.762 209.062 227.082 202.645 231.955Z" fill="white"/>
</svg>

<svg xmlns="http://www.w3.org/2000/svg" fill="none" viewBox="0 0 256 256"><path fill="#fff" d="M123.395 0h8.74q22.84.845 43.355 9.035 33.14 13.22 54.875 41.9-11.385.105-22.58.07c-3.865-.01-6.32-.425-8.835-3.24l-9.045-10.13c-2.9-3.245-8.065-3.32-11.1-.185A2129 2129 0 0 0 168.4 48.285C167.045 49.7 164.995 51 163.125 51q-68.635.005-137.48-.005Q35.545 37.6 48.36 27.59 81.24 1.915 123.395 0"/><path fill="#000" d="M230.365 50.935A137.5 137.5 0 0 1 248.82 85.55q-36.46.025-72.77.085-4.545.004-7.43-3.21a517 517 0 0 1-8.9-10.185c-3.295-3.865-8.335-3.5-11.525.2q-3.9 4.53-7.31 8.405a14.1 14.1 0 0 1-6.04 4.07q-1.86.645-7.73.645-59.87.005-119.92 0a134.4 134.4 0 0 1 18.45-34.565q68.845.01 137.48.005c1.87 0 3.92-1.3 5.275-2.715q5.13-5.38 10.405-10.835c3.035-3.135 8.2-3.06 11.1.185l9.045 10.13c2.515 2.815 4.97 3.23 8.835 3.24q11.195.035 22.58-.07"/><path fill="#fff" d="M248.82 85.55q5.37 15.425 6.77 31.945-48.005.015-95.965-.005c-2.175 0-4.805-1.57-6.375-3.37q-4.545-5.2-8.64-9.92c-1.905-2.195-4.315-3.035-7.23-2.67q-2.285.285-4.725 2.875a2876 2876 0 0 1-9.2 9.715c-2.01 2.11-3.57 3.39-6.33 3.385Q58.77 117.495.42 117.5a128.4 128.4 0 0 1 6.775-31.94q60.05.005 119.92 0 5.87 0 7.73-.645a14.1 14.1 0 0 0 6.04-4.07 1037 1037 0 0 0 7.31-8.405c3.19-3.7 8.23-4.065 11.525-.2a517 517 0 0 0 8.9 10.185q2.885 3.215 7.43 3.21 36.31-.06 72.77-.085"/><path fill="#000" d="m255.59 117.495.41 5.945v8.675q-1.82 43.015-28.275 76.135-10.6 13.27-25.08 23.705a150 150 0 0 0 17.875-15.96.94.94 0 0 1 .405-.255.62.62 0 0 0 .34-.245.31.31 0 0 0 .018-.33.32.32 0 0 0-.283-.17q-70.055.01-141.375.005c-2.7 0-5.135-1.305-6.935-3.35q-4.15-4.71-8.29-9.51c-1.995-2.315-4.35-3.615-7.44-2.985q-2.415.495-4.13 2.465-4.215 4.85-7.69 8.755-4.05 4.555-10.235 4.62a.17.17 0 0 0-.16.106.18.18 0 0 0 .035.194q6.064 6.365 12.825 12.17a94 94 0 0 1-7.585-6.485q-17.025-16.205-27.435-37.475 28.455-.015 56.82.005c2.725 0 4.855-.325 6.725-2.255q5.21-5.39 10.885-11.295c3.125-3.25 8.365-2.9 11.265.385q4.785 5.415 8.81 9.93c1.765 1.985 4.255 3.225 6.85 3.225h128.71a.6.6 0 0 0 .54-.34q7.195-15.13 10.275-31.2a.17.17 0 0 0-.034-.142.17.17 0 0 0-.131-.063q-61.13-.015-123.435 0c-2.485.005-4.975-.935-6.685-2.785a380 380 0 0 1-8.475-9.51q-1.745-2.02-3.27-2.745c-3.585-1.715-6.765-.325-9.28 2.56a911 911 0 0 1-6.5 7.38c-1.87 2.1-3.935 3.705-6.685 4.53q-1.86.555-5.735.555-40.495.02-81.145.005A198 198 0 0 1 0 132.435V123.5l.42-6q58.35-.005 116.705.005c2.76.005 4.32-1.275 6.33-3.385q4.87-5.12 9.2-9.715 2.44-2.59 4.725-2.875c2.915-.365 5.325.475 7.23 2.67q4.095 4.72 8.64 9.92c1.57 1.8 4.2 3.37 6.375 3.37q47.96.02 95.965.005"/><path fill="#fff" d="M12.585 183.505a113.5 113.5 0 0 1-10.495-31.76q40.65.015 81.145-.005 3.875 0 5.735-.555c2.75-.825 4.815-2.43 6.685-4.53a911 911 0 0 0 6.5-7.38c2.515-2.885 5.695-4.275 9.28-2.56q1.525.725 3.27 2.745a380 380 0 0 0 8.475 9.51c1.71 1.85 4.2 2.79 6.685 2.785q62.305-.015 123.435 0a.17.17 0 0 1 .165.205q-3.08 16.07-10.275 31.2a.6.6 0 0 1-.54.34H113.94c-2.595 0-5.085-1.24-6.85-3.225q-4.025-4.515-8.81-9.93c-2.9-3.285-8.14-3.635-11.265-.385a5292 5292 0 0 1-10.885 11.295c-1.87 1.93-4 2.255-6.725 2.255q-28.365-.02-56.82-.005m190.06 48.45q-28.095 20.165-62.78 23.42-3.585.335-7.175.625h-8q-43.225-1.495-76.865-28.2a.63.63 0 0 1-.22-.335 177 177 0 0 1-12.825-12.17.19.19 0 0 1-.034-.194.17.17 0 0 1 .16-.106q6.183-.065 10.234-4.62 3.475-3.905 7.69-8.755 1.715-1.97 4.13-2.465c3.09-.63 5.445.67 7.44 2.985q4.14 4.8 8.29 9.51c1.8 2.045 4.235 3.35 6.935 3.35q71.32.005 141.375-.005a.32.32 0 0 1 .265.5.62.62 0 0 1-.34.245.94.94 0 0 0-.405.255 150 150 0 0 1-17.875 15.96"/></svg>
